storage/app/icons/phosphoricons/duotone/arrow-square-right-duotone.svg

<svg xmlns="http://www.w3.org/2000/svg" fill="currentColor" viewBox="0 0 256 256"><path d="M216 48v160a8 8 0 0 1-8 8H48a8 8 0 0 1-8-8V48a8 8 0 0 1 8-8h160a8 8 0 0 1 8 8" opacity=".2"/><path d="M208 32H48a16 16 0 0 0-16 16v160a16 16 0 0 0 16 16h160a16 16 0 0 0 16-16V48a16 16 0 0 0-16-16m0 176H48V48h160ZM80 128a8 8 0 0 1 8-8h60.69l-18.35-18.34a8 8 0 0 1 11.32-11.32l32 32a8 8 0 0 1 0 11.32l-32 32a8 8 0 0 1-11.32-11.32L148.69 136H88a8 8 0 0 1-8-8"/></svg>

<svg xmlns="http://www.w3.org/2000/svg" viewBox="0 0 256 256" fill="currentColor"><path d="M216,48V208a8,8,0,0,1-8,8H48a8,8,0,0,1-8-8V48a8,8,0,0,1,8-8H208A8,8,0,0,1,216,48Z" opacity="0.2"/><path d="M208,32H48A16,16,0,0,0,32,48V208a16,16,0,0,0,16,16H208a16,16,0,0,0,16-16V48A16,16,0,0,0,208,32Zm0,176H48V48H208ZM80,128a8,8,0,0,1,8-8h60.69l-18.35-18.34a8,8,0,0,1,11.32-11.32l32,32a8,8,0,0,1,0,11.32l-32,32a8,8,0,0,1-11.32-11.32L148.69,136H88A8,8,0,0,1,80,128Z"/></svg>
